_inc/systems/logos/kodi.svg

<?xml version="1.0" encoding="utf-8"?>
<svg version="1.1" viewBox="0 0 600 197" xmlns="http://www.w3.org/2000/svg">
  <g>
    <path id="path7" d="M 398.781 42.086 C 399.793 42.149 400.808 42.212 401.823 42.281 C 409.597 42.819 417.033 44.645 423.978 48.251 C 428.939 50.831 433.338 54.17 437.263 58.149 C 441.524 62.473 445.05 67.317 447.701 72.782 C 449.65 76.797 451.002 81.004 451.942 85.358 C 453.086 90.697 453.464 96.103 453.239 101.538 C 452.872 110.264 450.942 118.601 446.828 126.363 C 443.96 131.78 440.218 136.531 435.768 140.732 C 428.63 147.471 420.267 151.867 410.657 153.903 C 407.102 154.654 403.519 155.128 399.883 155.242 C 399.721 155.248 399.556 155.296 399.393 155.323 L 395.117 155.323 C 394.186 155.254 393.255 155.191 392.331 155.122 C 381.205 154.317 371.049 150.882 362.247 143.876 C 355.302 138.351 349.86 131.609 346.152 123.513 C 344.266 119.402 343.002 115.09 342.161 110.649 C 341.212 105.625 340.909 100.553 341.161 95.457 C 341.698 84.731 344.524 74.713 350.749 65.836 C 358.034 55.452 367.556 48.065 379.853 44.495 C 383.601 43.407 387.421 42.681 391.316 42.383 C 392.553 42.287 393.787 42.239 395.021 42.164 C 395.225 42.152 395.424 42.113 395.625 42.086 L 398.781 42.086 L 398.781 42.086 Z M 397.09 140.762 C 401.045 140.732 404.871 140.408 408.627 139.48 C 416.804 137.462 423.606 133.219 429.011 126.751 C 434.531 120.15 437.398 112.478 438.176 103.973 C 438.446 101.064 438.476 98.148 438.305 95.229 C 438.113 92.061 437.699 88.926 436.858 85.86 C 434.233 76.289 428.858 68.653 420.6 63.128 C 414.423 58.999 407.51 57.11 400.141 56.743 C 396.114 56.545 392.108 56.728 388.135 57.449 C 381.196 58.71 375.022 61.575 369.701 66.236 C 364.542 70.758 360.809 76.25 358.503 82.71 C 356.752 87.595 356.055 92.655 355.983 97.82 C 355.923 101.832 356.205 105.82 357.076 109.742 C 358.659 116.82 361.842 123.066 366.809 128.387 C 371.193 133.087 376.409 136.465 382.481 138.534 C 387.253 140.159 392.18 140.711 397.09 140.762" style="fill-opacity: 1; fill: rgb(255, 255, 255);"/>
    <path id="path9" d="M 600 152.777 C 599.583 153.789 599.262 153.993 598.118 153.993 C 594.385 153.993 590.652 153.996 586.914 153.993 C 585.598 153.993 585.115 153.504 585.115 152.182 L 585.115 45.263 C 585.115 43.891 585.598 43.41 586.992 43.41 C 590.724 43.41 594.46 43.398 598.19 43.431 C 598.652 43.434 599.154 43.618 599.55 43.861 C 599.787 44.008 599.856 44.428 600 44.732 L 600 152.777 L 600 152.777 Z" style="fill-opacity: 1; fill: rgb(255, 255, 255);"/>
    <path id="path11" d="M 295.471 88.268 C 297.354 90.77 299.219 93.247 301.087 95.727 C 305.042 100.982 308.993 106.238 312.951 111.499 C 318.038 118.261 323.125 125.021 328.212 131.78 C 333.2 138.408 338.179 145.032 343.173 151.654 C 343.545 152.14 343.704 152.636 343.44 153.203 C 343.17 153.774 342.647 153.96 342.059 153.99 C 341.788 154.008 341.518 153.993 341.245 153.993 C 336.647 153.993 332.047 153.99 327.446 153.999 C 326.66 153.999 326.083 153.735 325.588 153.083 C 316.915 141.489 308.222 129.907 299.531 118.324 C 294.597 111.748 289.658 105.169 284.721 98.595 C 284.682 98.541 284.634 98.493 284.565 98.409 C 283.964 98.967 283.37 99.523 282.778 100.073 C 278.772 103.817 274.772 107.559 270.769 111.303 C 268.565 113.363 266.358 115.426 264.139 117.474 C 263.851 117.736 263.733 118 263.733 118.39 C 263.745 129.588 263.742 140.792 263.742 151.993 C 263.742 152.125 263.745 152.263 263.742 152.401 C 263.712 153.425 263.19 153.984 262.166 153.99 C 258.244 154.002 254.325 153.999 250.404 153.99 C 249.41 153.984 248.887 153.425 248.866 152.425 C 248.863 152.311 248.866 152.188 248.866 152.071 L 248.866 45.362 L 248.866 45.257 C 248.866 43.909 249.352 43.413 250.695 43.413 C 254.274 43.413 257.857 43.413 261.436 43.413 C 261.673 43.413 261.911 43.404 262.151 43.413 C 263.187 43.462 263.697 43.972 263.742 45.005 C 263.749 45.158 263.742 45.311 263.742 45.461 L 263.742 97.193 L 263.742 97.91 C 264.631 97.079 265.433 96.337 266.229 95.586 C 270.958 91.151 275.679 86.713 280.412 82.28 C 286.613 76.47 292.817 70.659 299.021 64.848 C 304.219 59.975 309.414 55.095 314.609 50.221 C 316.798 48.164 318.993 46.116 321.179 44.053 C 321.633 43.624 322.155 43.413 322.777 43.413 C 328.26 43.413 333.741 43.413 339.224 43.413 C 340.158 43.413 340.686 43.753 340.882 44.452 C 341.044 45.029 340.821 45.476 340.419 45.864 C 338.831 47.371 337.248 48.879 335.656 50.38 C 332.84 53.035 330.02 55.683 327.206 58.338 C 323.299 62.014 319.402 65.689 315.504 69.371 C 311.507 73.142 307.513 76.92 303.513 80.689 C 300.853 83.208 298.183 85.716 295.471 88.268" style="fill-opacity: 1; fill: rgb(255, 255, 255);"/>
    <path id="path13" d="M 470.247 98.715 L 470.247 45.458 C 470.247 45.305 470.247 45.152 470.25 44.999 C 470.268 43.996 470.779 43.471 471.776 43.413 C 471.845 43.41 471.911 43.413 471.974 43.413 C 487.202 43.413 502.427 43.377 517.651 43.434 C 524.651 43.459 531.351 45.032 537.744 47.894 C 543.305 50.38 548.188 53.846 552.431 58.209 C 559.347 65.311 563.941 73.686 566.197 83.349 C 567.497 88.914 568.034 94.547 567.917 100.244 C 567.755 107.901 566.425 115.333 563.524 122.45 C 561.104 128.387 557.632 133.663 553.257 138.342 C 546.552 145.528 538.396 150.251 528.846 152.567 C 524.723 153.564 520.549 154.008 516.306 154.002 C 501.562 153.984 486.811 153.996 472.061 153.993 C 471.809 153.993 471.554 153.975 471.307 153.939 C 470.758 153.852 470.421 153.525 470.325 152.981 C 470.274 152.699 470.25 152.41 470.25 152.125 C 470.247 134.321 470.247 116.52 470.247 98.715 M 485.142 139.762 L 485.799 139.762 C 495.712 139.762 505.622 139.771 515.534 139.75 C 517.312 139.747 519.096 139.672 520.867 139.537 C 524.549 139.246 528.06 138.27 531.417 136.729 C 535.804 134.723 539.492 131.795 542.669 128.177 C 545.627 124.811 547.966 121.06 549.69 116.925 C 551.524 112.523 552.509 107.931 552.873 103.181 C 553.209 98.85 553.074 94.538 552.422 90.247 C 551.647 85.175 549.999 80.391 547.449 75.935 C 544.618 70.98 540.96 66.737 536.266 63.458 C 530.645 59.533 524.33 57.707 517.516 57.674 C 506.91 57.623 496.298 57.659 485.691 57.656 L 485.142 57.656 L 485.142 139.762 L 485.142 139.762 Z" style="fill-opacity: 1; fill: rgb(255, 255, 255);"/>
    <path id="path17" d="M 197.867 100.193 C 197.228 102.262 195.828 103.778 194.33 105.274 C 184.294 115.273 174.292 125.309 164.274 135.333 C 160.664 138.942 156.809 138.933 153.187 135.309 C 142.848 124.961 132.512 114.619 122.179 104.271 C 118.659 100.748 118.662 96.898 122.191 93.37 C 132.581 82.959 142.974 72.557 153.37 62.158 C 156.751 58.773 160.727 58.77 164.109 62.155 C 174.183 72.232 184.246 82.325 194.342 92.388 C 195.84 93.881 197.234 95.4 197.867 97.475 L 197.867 100.193 L 197.867 100.193 Z" style="fill-opacity: 1; fill: rgb(255, 255, 255);"/>
    <path id="path19" d="M 98.237 197.103 C 96.174 196.448 94.681 195.022 93.195 193.526 C 83.201 183.482 73.177 173.467 63.162 163.44 C 59.58 159.855 59.577 156.026 63.15 152.449 C 73.517 142.077 83.88 131.702 94.246 121.333 C 97.693 117.883 101.642 117.871 105.068 121.303 C 115.434 131.672 125.797 142.047 136.16 152.419 C 139.719 155.987 139.731 159.894 136.184 163.434 C 126.086 173.551 115.969 183.65 105.891 193.785 C 104.447 195.229 102.963 196.535 100.954 197.103 L 98.237 197.103 L 98.237 197.103 Z" style="fill-opacity: 1; fill: rgb(255, 255, 255);"/>
    <path id="path21" d="M 61.862 73.98 C 61.862 62.446 61.964 50.909 61.796 39.381 C 61.748 36.044 62.544 33.438 65.093 31.234 C 67.141 29.462 68.958 27.417 70.88 25.492 C 78.477 17.886 86.075 10.282 93.675 2.679 C 97.249 -0.895 101.104 -0.892 104.675 2.679 C 115.014 13.021 125.35 23.363 135.686 33.705 C 139.238 37.26 139.232 41.167 135.683 44.723 C 123.461 56.963 111.233 69.2 99.005 81.433 C 88.21 92.247 77.414 103.054 66.616 113.859 C 64.613 115.862 62.841 115.396 62.114 112.619 C 61.892 111.76 61.874 110.832 61.874 109.934 C 61.856 97.95 61.862 85.965 61.862 73.98" style="fill-opacity: 1; fill: rgb(255, 255, 255);"/>
    <path id="path23" d="M 37.142 98.97 C 37.142 109.55 37.157 120.138 37.118 130.72 C 37.112 131.726 36.956 132.792 36.596 133.723 C 35.89 135.561 34.563 135.789 33.175 134.405 C 28.308 129.546 23.455 124.672 18.596 119.805 C 12.981 114.18 7.362 108.556 1.75 102.928 C -0.575 100.595 -0.584 97.364 1.729 95.022 C 12.068 84.568 22.407 74.115 32.749 63.662 C 33.434 62.974 34.079 62.035 35.241 62.476 C 36.352 62.893 36.791 63.896 36.947 65.007 C 37.046 65.695 37.124 66.395 37.124 67.091 C 37.136 77.719 37.13 88.343 37.13 98.97 L 37.142 98.97 Z" style="fill-opacity: 1; fill: rgb(255, 255, 255);"/>
  </g>
</svg>

<svg xmlns="http://www.w3.org/2000/svg" viewBox="0 0 600 197"><path d="m398.78 42.09 3.04.2c7.78.53 15.21 2.36 22.16 5.96a53 53 0 0 1 13.28 9.9 55 55 0 0 1 10.44 14.63 55 55 0 0 1 4.24 12.58 64 64 0 0 1 1.3 16.18c-.37 8.72-2.3 17.06-6.41 24.82a55 55 0 0 1-11.06 14.37 51.4 51.4 0 0 1-25.11 13.17 61 61 0 0 1-10.78 1.34c-.16 0-.32.06-.49.08h-4.27l-2.79-.2c-11.12-.8-21.28-4.24-30.08-11.24a55 55 0 0 1-16.1-20.37 55 55 0 0 1-3.99-12.86 65 65 0 0 1-1-15.2c.54-10.72 3.36-20.74 9.59-29.61 7.28-10.39 16.8-17.78 29.1-21.35a57 57 0 0 1 11.47-2.1q1.85-.13 3.7-.23.3-.02.6-.07zm-1.69 98.67a49 49 0 0 0 11.54-1.28A37.7 37.7 0 0 0 429 126.75c5.52-6.6 8.39-14.27 9.17-22.78q.4-4.36.13-8.74c-.2-3.17-.61-6.3-1.45-9.37-2.63-9.57-8-17.2-16.26-22.73-6.18-4.13-13.09-6.02-20.46-6.39-4.03-.2-8.03-.01-12 .7a37.6 37.6 0 0 0-18.44 8.8 39 39 0 0 0-11.2 16.47 46 46 0 0 0-2.52 15.11c-.06 4.01.22 8 1.1 11.92a39.4 39.4 0 0 0 9.73 18.65q6.57 7.05 15.67 10.14c4.77 1.63 9.7 2.18 14.61 2.23M600 152.78c-.42 1-.74 1.21-1.88 1.21h-11.2c-1.32 0-1.8-.49-1.8-1.8V45.25c0-1.37.48-1.85 1.87-1.85q5.6-.01 11.2.02c.46 0 .96.19 1.36.43.24.15.3.57.45.87z" style="fill-opacity:1;fill:#fff"/><path d="m295.47 88.27 5.62 7.46 11.86 15.77 15.26 20.28 14.96 19.87c.38.49.53.99.27 1.55-.27.57-.8.76-1.38.79q-.4.02-.81 0h-13.8c-.79 0-1.37-.25-1.86-.9q-13.02-17.4-26.06-34.77l-14.8-19.72-.17-.2-1.78 1.67-12.01 11.23q-3.3 3.1-6.63 6.17c-.29.27-.4.53-.4.92v34.01q-.04 1.56-1.57 1.59H250.4c-.99 0-1.51-.56-1.53-1.56V45.26c0-1.35.48-1.85 1.82-1.85h11.46q1.54.06 1.6 1.6v52.9l2.48-2.32 14.18-13.31 18.61-17.43 15.59-14.63 6.57-6.17q.67-.64 1.6-.64h16.44q1.4 0 1.66 1.04c.16.58-.06 1.03-.46 1.41l-4.76 4.52-8.45 7.96q-5.86 5.5-11.7 11.03l-12 11.32zm174.78 10.45V45q.03-1.5 1.53-1.59h.2c15.22 0 30.45-.03 45.67.02 7 .03 13.7 1.6 20.1 4.46a47 47 0 0 1 14.68 10.32 52.5 52.5 0 0 1 13.77 25.14 68 68 0 0 1 1.72 16.9 62 62 0 0 1-4.4 22.2 52 52 0 0 1-10.26 15.9 48 48 0 0 1-24.41 14.22c-4.13 1-8.3 1.44-12.54 1.43h-44.25q-.37 0-.75-.06a1.1 1.1 0 0 1-.99-.96 5 5 0 0 1-.07-.85zm14.9 41.04h.65q14.87.01 29.73-.01 2.68 0 5.34-.21a31 31 0 0 0 10.55-2.81c4.38-2 8.07-4.94 11.25-8.55a41 41 0 0 0 7.02-11.26 44 44 0 0 0 3.18-13.74q.52-6.5-.45-12.93a41 41 0 0 0-4.97-14.31 38 38 0 0 0-11.18-12.48 32.3 32.3 0 0 0-18.75-5.79c-10.61-.05-21.22-.01-31.83-.01h-.55zM197.87 100.2c-.64 2.06-2.04 3.58-3.54 5.07q-15.04 15.02-30.06 30.06c-3.6 3.61-7.46 3.6-11.08-.02l-31.01-31.04c-3.52-3.52-3.52-7.37.01-10.9l31.18-31.21c3.38-3.39 7.36-3.39 10.74 0q15.1 15.12 30.23 30.23c1.5 1.5 2.9 3.01 3.53 5.08zm-99.63 96.9c-2.07-.65-3.56-2.08-5.05-3.57q-15-15.06-30.03-30.09c-3.58-3.59-3.58-7.41-.01-11l31.1-31.1c3.44-3.46 7.4-3.47 10.82-.04l31.09 31.12c3.56 3.57 3.57 7.47.02 11.01q-15.16 15.17-30.29 30.35c-1.44 1.45-2.93 2.75-4.94 3.32zM61.86 73.98c0-11.53.1-23.07-.06-34.6-.05-3.34.74-5.94 3.3-8.15 2.04-1.77 3.86-3.81 5.78-5.74l22.8-22.81c3.57-3.57 7.42-3.57 11 0l31 31.03c3.56 3.55 3.55 7.46 0 11.01L99 81.43l-32.38 32.43c-2 2-3.78 1.54-4.5-1.24a11 11 0 0 1-.25-2.69zM37.14 98.97q.02 15.88-.02 31.75c0 1-.16 2.07-.52 3-.71 1.84-2.04 2.07-3.43.69L18.6 119.8 1.75 102.93a5.36 5.36 0 0 1-.02-7.9l31.02-31.37c.68-.69 1.33-1.62 2.5-1.18 1.1.41 1.54 1.42 1.7 2.53q.16 1.03.17 2.08.02 15.94.01 31.88z" style="fill-opacity:1;fill:#fff"/></svg>
